packages/ckeditor5-icons/theme/icons/ai.svg

<svg viewBox="0 0 20 20" xmlns="http://www.w3.org/2000/svg">
<path d="M13.9028 7.61719C14.2425 8.5347 14.9658 9.258 15.8833 9.59766L18.9995 10.751L15.8833 11.9043C14.9658 12.2439 14.2425 12.9673 13.9028 13.8848L12.7495 17.001L11.5962 13.8848C11.2565 12.9673 10.5332 12.2439 9.61572 11.9043L6.49951 10.751L9.61572 9.59766C10.5332 9.258 11.2565 8.5347 11.5962 7.61719L12.7495 4.50098L13.9028 7.61719ZM4.25635 12.3721C4.40579 12.7759 4.72456 13.0947 5.12842 13.2441L6.49951 13.751L5.12842 14.2578C4.72456 14.4073 4.40579 14.726 4.25635 15.1299L3.74951 16.501L3.24268 15.1299C3.09323 14.726 2.77446 14.4073 2.37061 14.2578L0.999512 13.751L2.37061 13.2441C2.77446 13.0947 3.09323 12.7759 3.24268 12.3721L3.74951 11.001L4.25635 12.3721ZM6.44092 2.87012C6.6447 3.42083 7.07965 3.85481 7.63037 4.05859L9.49951 4.75098L7.63037 5.44238C7.07965 5.64617 6.6447 6.08014 6.44092 6.63086L5.74951 8.50098L5.05811 6.63086C4.85432 6.08014 4.41937 5.64617 3.86865 5.44238L1.99951 4.75098L3.86865 4.05859C4.41937 3.85481 4.85432 3.42083 5.05811 2.87012L5.74951 1L6.44092 2.87012Z"/>
</svg>

<svg xmlns="http://www.w3.org/2000/svg" viewBox="0 0 20 20"><path d="M13.903 7.617a3.35 3.35 0 0 0 1.98 1.98L19 10.752l-3.117 1.153a3.35 3.35 0 0 0-1.98 1.98l-1.154 3.117-1.153-3.116a3.35 3.35 0 0 0-1.98-1.98L6.5 10.75l3.116-1.153a3.35 3.35 0 0 0 1.98-1.98L12.75 4.5zm-9.647 4.755c.15.404.469.723.872.872l1.372.507-1.372.507c-.403.15-.722.468-.872.872L3.75 16.5l-.507-1.371a1.48 1.48 0 0 0-.872-.872L1 13.75l1.37-.507a1.48 1.48 0 0 0 .873-.872L3.75 11zM6.441 2.87c.204.55.639.985 1.19 1.189L9.5 4.75l-1.87.691A2.02 2.02 0 0 0 6.44 6.63L5.75 8.5l-.692-1.87a2.01 2.01 0 0 0-1.19-1.189L2 4.751l1.869-.692a2.02 2.02 0 0 0 1.19-1.189L5.748 1z"/></svg>
